X:1
T:[ID 2-116]
T:[ID 2-116]
T:Bezeichnung standardisiert: Menuet [mit Trio] Men\"uet Con Trio 1.
T:Urheber unbekannt Datum in der hier transkribierten schriftlichen Quelle: 1767
C:Urheber unbekannt
C:Datum in der hier transkribierten schriftlichen Quelle: 1767
L:1/8
M:3/4
K:C
V:1 treble 
V:1
 g2 fedc | B4 c2 | a2 gfed | ecBd c2 | (Ge)(ed)(dc) | Bddffg | D2 BGA^F | G6 :: G2 geeg | G2 fddf | %10
 G2 ecfd | ge d4 | ecfdge | afbg c'2 | (3agf e2 d2 | c6 :|[M:3/4]"^Trio" !fermata!c4 eg | d4 fa | %18
 g2 fedc | B4 c2 | d2 d2 Bd | e2 e2 ce | f2 f2 e2 | d6 :: G2 G2 _B2 | AFcA f2 | A2 A2 c2 | %27
 BGdB g2 | f2 f2 df | e2 e2 ce | d2 c2 B2 | c6 :| %32

